tools/download-figma-icons/icons/solid/regenerative-energy.svg

<svg width="24" height="24" viewBox="0 0 24 24" fill="none" xmlns="http://www.w3.org/2000/svg">
<path fill-rule="evenodd" clip-rule="evenodd" d="M20.4522 15.0149C20.3405 15.3148 20.0555 15.5023 19.748 15.5023C19.6572 15.5023 19.5672 15.4881 19.4855 15.4498C19.0947 15.3081 18.9005 14.8731 19.0422 14.4906C20.0555 11.7899 19.3655 8.72248 17.2873 6.66002C14.6248 4.02083 10.4399 3.80333 7.51498 6.00004H8.24996C8.66245 6.00004 8.99995 6.33828 8.99995 6.75002C8.99995 7.16251 8.66245 7.50001 8.24996 7.50001H6.00001C5.58827 7.50001 5.25002 7.16251 5.25002 6.75002V4.50007C5.25002 4.08833 5.58827 3.75008 6.00001 3.75008C6.4125 3.75008 6.74999 4.08833 6.74999 4.50007V4.71081C10.2382 2.16762 15.1873 2.46836 18.3448 5.59505C20.843 8.07 21.6672 11.7682 20.4522 15.0149ZM13.7248 11.7524C13.9423 11.8199 14.1231 11.9856 14.2048 12.2024C14.2806 12.4199 14.2573 12.6599 14.1373 12.8631L12.1424 16.1398C11.9999 16.373 11.7524 16.4998 11.4981 16.4998C11.3631 16.4998 11.2274 16.463 11.1081 16.3873C10.7549 16.178 10.6424 15.713 10.8606 15.3606L12.3606 12.9006L10.2757 12.2481C10.0582 12.1806 9.87741 12.0149 9.79567 11.7981C9.71992 11.5806 9.74317 11.3406 9.86317 11.1374L11.8581 7.86071C12.0749 7.50746 12.5399 7.39572 12.8924 7.61321C13.2456 7.82246 13.3581 8.28745 13.1398 8.63994L11.6399 11.0999L13.7248 11.7524ZM18.7497 19.4997C18.7497 19.9122 18.4123 20.2497 17.9998 20.2497C17.588 20.2497 17.2498 19.9122 17.2498 19.4997V19.2897C15.6898 20.4304 13.8381 20.9929 11.9856 20.9929C9.69743 20.9929 7.40998 20.1297 5.67076 18.4055C3.15756 15.9073 2.33333 12.2106 3.57005 8.98566C3.72005 8.59492 4.15579 8.40067 4.53753 8.55067C4.92078 8.69992 5.11577 9.12741 4.96578 9.51815C3.94505 12.1948 4.63503 15.2623 6.72749 17.3405C9.38243 19.9797 13.5673 20.1897 16.4855 17.9997H15.7498C15.3381 17.9997 14.9998 17.6622 14.9998 17.2497C14.9998 16.838 15.3381 16.4998 15.7498 16.4998H17.9998C18.4123 16.4998 18.7497 16.838 18.7497 17.2497V19.4997ZM11.9998 0C5.37064 0 0 5.37064 0 11.9998C0 18.6296 5.37064 23.9995 11.9998 23.9995C18.6296 23.9995 23.9995 18.6296 23.9995 11.9998C23.9995 5.37064 18.6296 0 11.9998 0Z" fill="black"/>
</svg>

<svg xmlns="http://www.w3.org/2000/svg" width="24" height="24" fill="none" viewBox="0 0 24 24"><path fill="currentColor" fill-rule="evenodd" d="M20.452 15.015a.75.75 0 0 1-.704.487.6.6 0 0 1-.263-.052.746.746 0 0 1-.443-.96c1.013-2.7.323-5.768-1.755-7.83C14.625 4.02 10.44 3.803 7.515 6h.735c.412 0 .75.338.75.75 0 .413-.338.75-.75.75H6a.753.753 0 0 1-.75-.75V4.5c0-.412.338-.75.75-.75s.75.338.75.75v.21c3.488-2.542 8.437-2.242 11.595.885 2.498 2.475 3.322 6.173 2.107 9.42m-6.727-3.263a.75.75 0 0 1 .48.45.79.79 0 0 1-.068.661l-1.995 3.277a.75.75 0 0 1-1.034.247.74.74 0 0 1-.247-1.026l1.5-2.46-2.085-.653a.75.75 0 0 1-.48-.45.79.79 0 0 1 .067-.66l1.995-3.277a.753.753 0 0 1 1.034-.248c.354.21.466.674.248 1.027l-1.5 2.46zM18.75 19.5c0 .412-.338.75-.75.75a.753.753 0 0 1-.75-.75v-.21a8.9 8.9 0 0 1-5.264 1.703 8.94 8.94 0 0 1-6.315-2.587c-2.513-2.499-3.338-6.195-2.101-9.42a.748.748 0 1 1 1.396.532c-1.021 2.677-.331 5.744 1.761 7.822 2.655 2.64 6.84 2.85 9.758.66h-.735a.753.753 0 0 1-.75-.75c0-.412.338-.75.75-.75H18c.412 0 .75.338.75.75zM12 0C5.37 0 0 5.37 0 12s5.37 12 12 12 12-5.37 12-12S18.63 0 12 0" clip-rule="evenodd"/></svg>
